X:3214
T: Kathleen's Waltz
O:england
C: (c) James Fownes
N: For permission, contact James H Fownes  <jfownes@forwild.umass.edu>
N: abc transcription by Robert Bley-Vroman vroman@hawaii.edu July 23, 1997
R: Waltz
M: 3/4
L: 1/8
K: D
DE |: "D" F3  E DB | "F#m" A3  E FG | "G" A2 G3  F | "A" F2 E2 FG |
"D" A3  G Fd | "F#m" c3  F Ac | "G" B3  A Bd |[1 "A" c4   DE :|[2 "A" c3  A Bc ||
|: "Bm" d3  c de | "F#m" cB A3  D | "G" B3  G AB | "D" AG F2 DF |
"Em" G3  A GE | "Bm" FE D2 B2 | "G" B3  A Bd |[1 "A" c3  A Bc :|[2 "A" c4   DE |]
